X:1

T:Who list to lead a soldier’s life

M:6/4

L:1/8

S:Chappell – Popular Music of the Olden Times (1859)

Z:AK/Fiddler’s Companion

K:A

A2 | c3d e2 c3BA2 | B4 G2 E4B2 | c3d e2 A3BA2 | (B6 B4) ||
B2 | c3d e2 c3BA2 | B4G2 E3D C2 | D3EF2 E3F G2 | (A6 A6) ||

                       

WHO LIVETH SO MERRY. English, Ballad Air (3/4 time). G Major. Standard tuning. AA. This late sixteenth century air appears in Deuteromelia (1609) and Pills to Purge Melancholy (1698). Kines (1964) notes it was an early song built on occupations, which must have proved popular, for many other such songs are found later in the 17th century in Pills to Purge Melancholy. Chappell (Popular Music of the Olden Times), vol. 1, 1859; pg. 137. Kines (Songs From Shakespeare's Plays and Popular Songs of Shakespeare's Time), 1964; pg. 90.

                       

WHO MADE YOUR BRITCHES?  AKA and see “Limerick Lasses.” American, Reel. D Major. Standard tuning. AB. “Who Made Your Britches?” is the first two parts of the Irish tune “Limerick Lasses.” Cole (1000 Fiddle Tunes), 1940; pg. 25. Ryan’s Mammoth Collection, 1883; pg. 50.

